assets/img/braze_icons/trophy-01.svg

<svg fill="none" height="24" viewBox="0 0 24 24" width="24" xmlns="http://www.w3.org/2000/svg"><path clip-rule="evenodd" d="m7.44446 1.00002-.08991-.000245c-.31306-.001266-.69875-.002825-1.03857.120865-.55553.20219-.99315.63981-1.19534 1.19534-.0799.21952-.10754.45817-.11675.68402h-1.53027c-.21004-.00002-.41467-.00004-.58875.01184-.19037.01299-.4161.04346-.65014.1404-.49006.20299-.8794.59234-1.08239 1.0824-.09695.23404-.12742.45976-.14041.65014-.01188.17408-.01186.3787-.01184.58875l-.00004.66405c-.000433.79539-.000753 1.38605.13634 1.8977.36987 1.38037 1.44806 2.45852 2.82843 2.82842.38055.102.80481.1279 1.32449.1344.76787 2.5828 2.98624 4.5413 5.71069 4.931v1.0709h-.4444c-2.51601 0-4.5556 2.0396-4.5556 4.5556 0 .7977.6467 1.4444 1.44444 1.4444h9.11116c.7977 0 1.4444-.6467 1.4444-1.4444 0-2.516-2.0396-4.5556-4.5556-4.5556h-.4444v-1.0709c2.7245-.3897 4.9429-2.3482 5.7107-4.931.5197-.0065.944-.0324 1.3246-.1344 1.3803-.3699 2.4585-1.44805 2.8284-2.82842.1371-.51165.1368-1.10231.1363-1.8977v-.66406c0-.21004 0-.41466-.0118-.58874-.013-.19038-.0435-.4161-.1404-.65014-.203-.49006-.5924-.87941-1.0824-1.0824-.2341-.09694-.4598-.12741-.6502-.1404-.1741-.01188-.3787-.01186-.5887-.01184h-1.5304c-.0092-.22585-.0368-.4645-.1167-.68402-.2022-.55553-.6398-.99315-1.1953-1.19534-.3399-.12369-.7255-.122131-1.0386-.120865l-.0899.000245zm-2.44444 4.79998c0-.28002 0-.42004-.0545-.52699-.04793-.09408-.12442-.17057-.2185-.21851-.10696-.0545-.24697-.0545-.527-.0545h-.45648c-.26417 0-.39625 0-.50034.051-.09034.04426-.16801.11798-.21692.20588-.05636.10128-.06304.22916-.07641.48492-.0315.60293-.02829 1.2285.11837 1.77584.18494.69019.72403 1.22928 1.41422 1.41422.11878.03182.26004.04909.51756.05828zm13.99998.00328c0-.28106 0-.42159.0548-.52877.0482-.09427.125-.17082.2195-.21861.1074-.05434.2479-.05376.529-.05262l.4482.00183c.2631.00108.3946.00161.4982.0527.09.04437.1672.11788.2159.20556.0561.10096.0629.22844.0765.48339.0321.6038.0316 1.24163-.1102 1.77088-.185.69019-.7241 1.22928-1.4143 1.41422-.1187.03182-.26.0491-.5176.05828z" fill="#801ed7" fill-rule="evenodd"/></svg>

<svg width="24" height="24" viewBox="0 0 24 24" fill="none" xmlns="http://www.w3.org/2000/svg">
<path fill-rule="evenodd" clip-rule="evenodd" d="M7.44446 1.00002L7.35455 0.999775C7.04149 0.998509 6.6558 0.99695 6.31598 1.12064C5.76045 1.32283 5.32283 1.76045 5.12064 2.31598C5.04074 2.5355 5.0131 2.77415 5.00389 3L3.47362 3C3.26358 2.99998 3.05895 2.99996 2.88487 3.01184C2.6945 3.02483 2.46877 3.0553 2.23473 3.15224C1.74467 3.35523 1.35533 3.74458 1.15234 4.23464C1.05539 4.46868 1.02492 4.6944 1.01193 4.88478C1.00005 5.05886 1.00007 5.26348 1.00009 5.47353L1.00005 6.13758C0.999617 6.93297 0.999297 7.52363 1.13639 8.03528C1.50626 9.41565 2.58445 10.4938 3.96482 10.8637C4.34537 10.9657 4.76963 10.9916 5.28931 10.9981C6.05718 13.5809 8.27555 15.5394 11 15.9291V17H10.5556C8.03959 17 6 19.0396 6 21.5556C6 22.3533 6.6467 23 7.44444 23H16.5556C17.3533 23 18 22.3533 18 21.5556C18 19.0396 15.9604 17 13.4444 17H13V15.9291C15.7245 15.5394 17.9429 13.5809 18.7107 10.9981C19.2304 10.9916 19.6547 10.9657 20.0353 10.8637C21.4156 10.4938 22.4938 9.41565 22.8637 8.03528C23.0008 7.52363 23.0005 6.93297 23 6.13758L23 5.47352C23 5.26348 23 5.05886 22.9882 4.88478C22.9752 4.6944 22.9447 4.46868 22.8478 4.23464C22.6448 3.74458 22.2554 3.35523 21.7654 3.15224C21.5313 3.0553 21.3056 3.02483 21.1152 3.01184C20.9411 2.99996 20.7365 2.99998 20.5265 3L18.9961 3C18.9869 2.77415 18.9593 2.5355 18.8794 2.31598C18.6772 1.76045 18.2396 1.32283 17.6841 1.12064C17.3442 0.99695 16.9586 0.998509 16.6455 0.999775L16.5556 1.00002H7.44446ZM5.00002 5.8C5.00002 5.51998 5.00002 5.37996 4.94552 5.27301C4.89759 5.17893 4.8211 5.10244 4.72702 5.0545C4.62006 5 4.48005 5 4.20002 5L3.74354 5C3.47937 5 3.34729 5 3.2432 5.051C3.15286 5.09526 3.07519 5.16898 3.02628 5.25688C2.96992 5.35816 2.96324 5.48604 2.94987 5.7418C2.91837 6.34473 2.92158 6.9703 3.06824 7.51764C3.25318 8.20783 3.79227 8.74692 4.48246 8.93186C4.60124 8.96368 4.7425 8.98095 5.00002 8.99014V5.8ZM19 5.80328C19 5.52222 19 5.38169 19.0548 5.27451C19.103 5.18024 19.1798 5.10369 19.2743 5.0559C19.3817 5.00156 19.5222 5.00214 19.8033 5.00328L20.2515 5.00511C20.5146 5.00619 20.6461 5.00672 20.7497 5.05781C20.8397 5.10218 20.9169 5.17569 20.9656 5.26337C21.0217 5.36433 21.0285 5.49181 21.0421 5.74676C21.0742 6.35056 21.0737 6.98839 20.9319 7.51764C20.7469 8.20783 20.2078 8.74692 19.5176 8.93186C19.3989 8.96368 19.2576 8.98096 19 8.99014V5.80328Z" fill="#801ED7"/>
</svg>
